X:1
T: The Duchess Dowager of Richmond's Strathspey
C:William Marshall
R:Strathspey
Q: 128
K:E
M:4/4
L:1/16
|:G2|E4 B2G2 BB3 B3G|Bdef agfe f2F2 F2G2|E4 B2G2 BB3 B3a|agfe gfed e2E2 E2G2|
E4 B2G2 BB3 B3G|Bdef agfe f2F2 F2G2|E4 B2G2 BB3 B3a|agfe gfed e2E2 E2a2|
g3f eB3 e2g2 e2B2|cdef edcB cf3 f3a|g3f eB3 e2g2 b2B2|c3B cBAG B2e2 e2a2|
g3f eB3 e2g2 e2B2|cdef edcB cf3 f3a|gb3 fg3 eg3 c3e|B3e f2ef g2e2 e2:|
